raw-svg/barcode.svg

<svg fill="none" height="24" viewBox="0 0 24 24" width="24" xmlns="http://www.w3.org/2000/svg"><path clip-rule="evenodd" d="m4 4c-.55228 0-1 .44772-1 1v14c0 .5523.44772 1 1 1s1-.4477 1-1v-14c0-.55228-.44772-1-1-1zm3 0c-.27614 0-.5.22386-.5.5v15c0 .2761.22386.5.5.5s.5-.2239.5-.5v-15c0-.27614-.22386-.5-.5-.5zm2.5 0c-.27614 0-.5.22386-.5.5v15c0 .2761.22386.5.5.5s.5-.2239.5-.5v-15c0-.27614-.22386-.5-.5-.5zm10 .75c0-.41421.3358-.75.75-.75s.75.33579.75.75v14.5c0 .4142-.3358.75-.75.75s-.75-.3358-.75-.75zm-7 .25c0-.55228.4477-1 1-1s1 .44772 1 1v14c0 .5523-.4477 1-1 1s-1-.4477-1-1zm4.5-1c-.5523 0-1 .44772-1 1v14c0 .5523.4477 1 1 1s1-.4477 1-1v-14c0-.55228-.4477-1-1-1z" fill="#000" fill-rule="evenodd"/></svg>

<svg width="24" height="24" viewBox="0 0 24 24" fill="none" xmlns="http://www.w3.org/2000/svg">
<path fill-rule="evenodd" clip-rule="evenodd" d="M4 4C3.44772 4 3 4.44772 3 5V19C3 19.5523 3.44772 20 4 20C4.55228 20 5 19.5523 5 19V5C5 4.44772 4.55228 4 4 4ZM7 4C6.72386 4 6.5 4.22386 6.5 4.5V19.5C6.5 19.7761 6.72386 20 7 20C7.27614 20 7.5 19.7761 7.5 19.5V4.5C7.5 4.22386 7.27614 4 7 4ZM9.5 4C9.22386 4 9 4.22386 9 4.5V19.5C9 19.7761 9.22386 20 9.5 20C9.77614 20 10 19.7761 10 19.5V4.5C10 4.22386 9.77614 4 9.5 4ZM19.5 4.75C19.5 4.33579 19.8358 4 20.25 4C20.6642 4 21 4.33579 21 4.75V19.25C21 19.6642 20.6642 20 20.25 20C19.8358 20 19.5 19.6642 19.5 19.25V4.75ZM12.5 5C12.5 4.44772 12.9477 4 13.5 4C14.0523 4 14.5 4.44772 14.5 5V19C14.5 19.5523 14.0523 20 13.5 20C12.9477 20 12.5 19.5523 12.5 19V5ZM17 4C16.4477 4 16 4.44772 16 5V19C16 19.5523 16.4477 20 17 20C17.5523 20 18 19.5523 18 19V5C18 4.44772 17.5523 4 17 4Z" fill="black"/>
</svg>
